; generated by PrusaSlicer 2.7.4+MacOS-arm64 on 2024-05-27 at 11:10:29 UTC


;
;
; 

; external perimeters extrusion width = 0.25mm
; perimeters extrusion width = 0.25mm
; infill extrusion width = 0.25mm
; solid infill extrusion width = 0.25mm
; top infill extrusion width = 0.25mm
; support material extrusion width = 0.25mm
; first layer extrusion width = 0.30mm

; external perimeters extrusion width = 0.25mm
; perimeters extrusion width = 0.25mm
; infill extrusion width = 0.25mm
; solid infill extrusion width = 0.25mm
; top infill extrusion width = 0.25mm
; support material extrusion width = 0.25mm
; first layer extrusion width = 0.30mm

; external perimeters extrusion width = 0.25mm
; perimeters extrusion width = 0.25mm
; infill extrusion width = 0.25mm
; solid infill extrusion width = 0.25mm
; top infill extrusion width = 0.25mm
; support material extrusion width = 0.25mm
; first layer extrusion width = 0.30mm

M73 P0 R91
M73 Q0 S92
M201 X1000 Y1000 Z200 E5000 ; sets maximum accelerations, mm/sec^2
M203 X200 Y200 Z12 E120 ; sets maximum feedrates, mm / sec
M204 S1250 T1250 ; sets acceleration (S) and retract acceleration (R), mm/sec^2
M205 X8.00 Y8.00 Z0.40 E4.50 ; sets the jerk limits, mm/sec
M205 S0 T0 ; sets the minimum extruding and travel feed rate, mm/sec

; printing object shelf_joiners_1.stl_3 id:2 copy 0
; stop printing object shelf_joiners_1.stl_3 id:2 copy 0
; printing object shelf_joiners_1.stl_2 id:1 copy 0
; stop printing object shelf_joiners_1.stl_2 id:1 copy 0
; printing object shelf_joiners_1.stl_1 id:0 copy 0
; stop printing object shelf_joiners_1.stl_1 id:0 copy 0

;TYPE:Custom
M862.3 P "MK3S" ; printer model check
M862.1 P0.4 ; nozzle diameter check
M115 U3.13.3 ; tell printer latest fw version
G90 ; use absolute coordinates
M83 ; extruder relative mode
M104 S215 ; set extruder temp
M140 S60 ; set bed temp
M190 S60 ; wait for bed temp
M109 S215 ; wait for extruder temp
G28 W ; home all without mesh bed level
G80 X94.6428 Y75.1322 W54.6115 H58.4379 ; mesh bed levelling
G1 Z0.2 F720
G1 Y-3 F1000 ; go outside print area
G92 E0
G1 X60 E8 F700 ; intro line
G1 X100 E12.5 F700 ; intro line
G92 E0
M221 S95

; Don't change E value below. Excessive value can damage the printer.
M907 E430 ; set extruder motor current
G21 ; set units to millimeters
G90 ; use absolute coordinates
M83 ; use relative distances for extrusion

M900 K0.05 ; Filament gcode LA 1.5
M900 K30 ; Filament gcode LA 1.0




M107
;LAYER_CHANGE
;Z:0.2
;HEIGHT:0.2
G1 E-.8 F2100
G1 Z.35 F720
G1 X95.38 Y96.297 F10800
G1 Z.2 F720
G1 E.8 F2100
M204 S500
;TYPE:Skirt/Brim
;WIDTH:0.3
G1 F1200
G1 X95.776 Y95.905 E.01191
G1 X126.174 Y75.64 E.78095
G1 X127.426 Y75.261 E.02796
G1 X138.269 Y75.261 E.23178
G1 X139.865 Y75.922 E.03693
G1 X148.465 Y84.522 E.25998
G1 X149.126 Y86.118 E.03693
G1 X149.101 Y97.29 E.23882
G1 X144.946 Y125.372 E.60682
G1 X144.31 Y126.638 E.03029
G1 X138.167 Y132.78 E.18569
G1 X136.571 Y133.442 E.03693
G1 X125.082 Y133.403 E.24559
G1 X96.611 Y128.043 E.61929
G1 X95.435 Y127.424 E.02841
G1 X94.771 Y125.825 E.03701
G1 X94.771 Y97.783 E.59943
G1 X95.162 Y96.513 E.02841
M73 Q0 S91
G1 X95.337 Y96.34 E.00526
M204 S1000
;WIPE_START
G1 F8640
G1 X95.38 Y96.297 E-.01404
G1 X95.776 Y95.905 E-.12866
G1 X98.145 Y94.326 E-.6573
;WIPE_END
G1 Z.35 F720
; printing object shelf_joiners_1.stl_2 id:1 copy 0
G1 X138.269 Y78.746 F10800
G1 Z.2 F720
G1 E.8 F2100
M204 S500
;TYPE:Support material
G1 F1200
G1 X139.497 Y78.746 E.02625
G1 X139.497 Y79.975 E.02627
G1 X140.726 Y79.975 E.02627
G1 X140.726 Y81.203 E.02625
G1 X141.954 Y81.203 E.02625
G1 X141.954 Y82.432 E.02627
G1 X143.183 Y82.432 E.02627
G1 X143.183 Y83.66 E.02625
G1 X144.412 Y83.66 E.02627
G1 X144.412 Y84.889 E.02627
G1 X145.64 Y84.889 E.02625
G1 X145.64 Y86.118 E.02627
G1 X146.869 Y86.118 E.02627
G1 X146.869 Y96.96 E.23176
G1 X145.64 Y96.96 E.02627
G1 X145.64 Y98.189 E.02627
G1 X144.412 Y98.189 E.02625
G1 X144.412 Y99.417 E.02625
G1 X143.183 Y99.417 E.02627
G1 X143.183 Y100.646 E.02627
G1 X141.954 Y100.646 E.02627
G1 X141.954 Y101.874 E.02625
G1 X140.726 Y101.874 E.02625
G1 X140.726 Y103.103 E.02627
G1 X139.497 Y103.103 E.02627
G1 X139.497 Y104.331 E.02625
G1 X138.269 Y104.331 E.02625
G1 X138.269 Y105.56 E.02627
G1 X127.426 Y105.56 E.23178
G1 X127.426 Y104.331 E.02627
G1 X126.198 Y104.331 E.02625
G1 X126.198 Y103.103 E.02625
G1 X124.969 Y103.103 E.02627
G1 X124.969 Y101.874 E.02627
G1 X123.741 Y101.874 E.02625
G1 X123.741 Y100.646 E.02625
G1 X122.512 Y100.646 E.02627
G1 X122.512 Y99.417 E.02627
G1 X121.284 Y99.417 E.02625
G1 X121.284 Y98.189 E.02625
G1 X120.055 Y98.189 E.02627
G1 X120.055 Y96.96 E.02627
G1 X118.827 Y96.96 E.02625
G1 X118.827 Y86.118 E.23176
G1 X120.055 Y86.118 E.02625
G1 X120.055 Y84.889 E.02627
G1 X121.284 Y84.889 E.02627
G1 X121.284 Y83.66 E.02627
G1 X122.512 Y83.66 E.02625
G1 X122.512 Y82.432 E.02625
G1 X123.741 Y82.432 E.02627
G1 X123.741 Y81.203 E.02627
G1 X124.969 Y81.203 E.02625
G1 X124.969 Y79.975 E.02625
G1 X126.198 Y79.975 E.02627
G1 X126.198 Y78.746 E.02627
G1 X127.426 Y78.746 E.02625
G1 X127.426 Y77.518 E.02625
G1 X138.269 Y77.518 E.23178
G1 X138.269 Y78.708 E.02544
M204 S1000
G1 X138.269 Y78.708 F10800
G1 X130.493 Y81.014
M204 S500
G1 F1200
G1 X135.202 Y81.014 E.10066
G1 X135.395 Y81.094 E.00447
G1 X143.293 Y88.991 E.23875
G1 X143.373 Y89.184 E.00447
G1 X143.373 Y93.893 E.10066
G1 X143.293 Y94.086 E.00447
G1 X135.395 Y101.984 E.23876
G1 X135.202 Y102.064 E.00447
G1 X130.493 Y102.064 E.10066
G1 X130.3 Y101.984 E.00447
G1 X122.403 Y94.086 E.23875
G1 X122.323 Y93.893 E.00447
G1 X122.323 Y89.184 E.10066
G1 X122.403 Y88.991 E.00447
G1 X130.3 Y81.094 E.23873
G1 X130.458 Y81.029 E.00365
M204 S1000
;WIPE_START
G1 F8640
G1 X130.3 Y81.094 E-.03945
G1 X127.971 Y83.423 E-.76055
;WIPE_END
G1 Z.35 F720
G1 X146.559 Y96.844 F10800
G1 Z.2 F720
G1 E.8 F2100
M204 S500
G1 F1200
G1 X146.559 Y86.349 E.22434
G1 X146.273 Y86.349 E.00611
G1 X146.273 Y96.729 E.22189
G1 X145.987 Y96.729 E.00611
G1 X145.987 Y86.349 E.22189
G1 X145.702 Y86.349 E.00609
G1 X145.702 Y96.729 E.22189
G1 X145.416 Y96.729 E.00611
G1 X145.409 Y85.12 E.24816
G1 X145.13 Y85.12 E.00596
G1 X145.13 Y97.957 E.27441
G1 X144.845 Y97.957 E.00609
G1 X144.845 Y85.12 E.27441
G1 X144.559 Y85.12 E.00611
G1 X144.559 Y97.957 E.27441
G1 X144.273 Y97.957 E.00611
G1 X144.273 Y85.12 E.27441
G1 X144.18 Y85.12 E.00199
G1 X144.18 Y83.892 E.02625
G1 X143.988 Y83.892 E.0041
G1 X143.988 Y99.186 E.32693
G1 X143.702 Y99.186 E.00611
G1 X143.702 Y83.892 E.32693
G1 X143.416 Y83.892 E.00611
G1 X143.416 Y88.788 E.10466
G1 X143.131 Y88.502 E.00863
G1 X143.131 Y83.892 E.09854
G1 X142.952 Y83.892 E.00383
G1 X142.952 Y82.663 E.02627
G1 X142.845 Y82.663 E.00229
G1 X142.845 Y88.217 E.11872
G1 X142.56 Y87.931 E.00863
G1 X142.56 Y82.663 E.11261
G1 X142.274 Y82.663 E.00611
G1 X142.274 Y87.645 E.1065
G1 X141.988 Y87.36 E.00863
G1 X141.988 Y82.663 E.1004
G1 X141.723 Y82.663 E.00566
G1 X141.723 Y81.435 E.02625
G1 X141.703 Y87.074 E.12054
G1 X141.417 Y86.788 E.00865
G1 X141.417 Y81.435 E.11443
G1 X141.131 Y81.435 E.00611
G1 X141.131 Y86.503 E.10833
G1 X140.846 Y86.217 E.00863
G1 X140.846 Y81.435 E.10222
G1 X140.56 Y81.435 E.00611
G1 X140.56 Y85.932 E.09613
G1 X140.274 Y85.646 E.00865
G1 X140.274 Y80.206 E.11629
G1 X139.989 Y80.206 E.00609
G1 X139.989 Y85.36 E.11017
G1 X139.703 Y85.075 E.00863
G1 X139.703 Y80.206 E.10408
G1 X139.417 Y80.206 E.00611
G1 X139.417 Y84.789 E.09797
G1 X139.132 Y84.503 E.00863
G1 X139.132 Y78.978 E.1181
G1 X138.846 Y78.978 E.00611
G1 X138.846 Y84.218 E.11201
G1 X138.56 Y83.932 E.00865
G1 X138.56 Y78.978 E.1059
G1 X138.275 Y78.978 E.00609
M73 P0 R90
G1 X138.275 Y83.646 E.09978
G1 X137.989 Y83.361 E.00863
G1 X137.989 Y77.749 E.11996
G1 X137.704 Y77.749 E.00609
G1 X137.704 Y83.075 E.11385
G1 X137.418 Y82.789 E.00865
G1 X137.418 Y77.749 E.10774
G1 X137.132 Y77.749 E.00611
G1 X137.132 Y82.504 E.10164
G1 X136.847 Y82.218 E.00863
G1 X136.847 Y77.749 E.09553
G1 X136.561 Y77.749 E.00611
G1 X136.561 Y81.933 E.08944
G1 X136.275 Y81.647 E.00865
G1 X136.275 Y77.749 E.08332
G1 X135.99 Y77.749 E.00609
G1 X135.99 Y81.361 E.07721
G1 X135.704 Y81.076 E.00863
G1 X135.704 Y77.749 E.07112
G1 X135.418 Y77.749 E.00611
G1 X135.418 Y80.853 E.06635
G1 X135.133 Y80.782 E.00628
G1 X135.133 Y77.749 E.06483
G1 X134.847 Y77.749 E.00611
G1 X134.847 Y80.782 E.06483
G1 X134.561 Y80.782 E.00611
G1 X134.561 Y77.749 E.06483
G1 X134.276 Y77.749 E.00609
G1 X134.276 Y80.782 E.06483
G1 X133.99 Y80.782 E.00611
G1 X133.99 Y77.749 E.06483
G1 X133.705 Y77.749 E.00609
G1 X133.705 Y80.782 E.06483
G1 X133.419 Y80.782 E.00611
G1 X133.419 Y77.749 E.06483
G1 X133.133 Y77.749 E.00611
G1 X133.133 Y80.782 E.06483
G1 X132.848 Y80.782 E.00609
G1 X132.848 Y77.749 E.06483
G1 X132.562 Y77.749 E.00611
G1 X132.562 Y80.782 E.06483
G1 X132.276 Y80.782 E.00611
G1 X132.276 Y77.749 E.06483
G1 X131.991 Y77.749 E.00609
G1 X131.991 Y80.782 E.06483
G1 X131.705 Y80.782 E.00611
G1 X131.705 Y77.749 E.06483
G1 X131.419 Y77.749 E.00611
G1 X131.419 Y80.782 E.06483
G1 X131.134 Y80.782 E.00609
G1 X131.134 Y77.749 E.06483
G1 X130.848 Y77.749 E.00611
G1 X130.848 Y80.782 E.06483
G1 X130.562 Y80.782 E.00611
G1 X130.562 Y77.749 E.06483
G1 X130.277 Y77.749 E.00609
G1 X130.277 Y80.853 E.06635
G1 X129.991 Y81.076 E.00775
G1 X129.991 Y77.749 E.07112
G1 X129.706 Y77.749 E.00609
G1 X129.706 Y81.361 E.07721
G1 X129.42 Y81.647 E.00865
G1 X129.42 Y77.749 E.08332
G1 X129.134 Y77.749 E.00611
G1 X129.134 Y81.933 E.08944
G1 X128.849 Y82.218 E.00862
G1 X128.849 Y77.749 E.09553
G1 X128.563 Y77.749 E.00611
G1 X128.563 Y82.504 E.10164
G1 X128.277 Y82.789 E.00863
G1 X128.277 Y77.749 E.10774
G1 X127.992 Y77.749 E.00609
G1 X127.992 Y83.075 E.11385
G1 X127.706 Y83.361 E.00865
G1 X127.658 Y77.749 E.11997
G1 X127.658 Y78.978 E.02627
G1 X127.42 Y78.978 E.00509
G1 X127.42 Y83.646 E.09978
G1 X127.135 Y83.932 E.00863
G1 X127.135 Y78.978 E.1059
G1 X126.849 Y78.978 E.00611
G1 X126.849 Y84.218 E.11201
G1 X126.563 Y84.503 E.00863
G1 X126.563 Y78.978 E.1181
G1 X126.429 Y78.978 E.00286
G1 X126.429 Y80.206 E.02625
G1 X126.278 Y80.206 E.00323
G1 X126.278 Y84.789 E.09797
G1 X125.992 Y85.075 E.00865
G1 X125.992 Y80.206 E.10408
G1 X125.707 Y80.206 E.00609
G1 X125.707 Y85.36 E.11017
G1 X125.421 Y85.646 E.00865
G1 X125.421 Y80.206 E.11629
G1 X125.201 Y80.206 E.0047
G1 X125.201 Y81.435 E.02627
G1 X125.135 Y81.435 E.00141
G1 X125.135 Y85.932 E.09613
G1 X124.85 Y86.217 E.00862
G1 X124.85 Y81.435 E.10222
G1 X124.564 Y81.435 E.00611
G1 X124.564 Y86.503 E.10833
G1 X124.278 Y86.788 E.00863
M73 P1 R90
M73 Q1 S91
G1 X124.278 Y81.435 E.11443
G1 X123.993 Y81.435 E.00609
G1 X123.993 Y87.074 E.12054
G1 X123.707 Y87.36 E.00865
G1 X123.707 Y82.663 E.1004
G1 X123.421 Y82.663 E.00611
G1 X123.421 Y87.645 E.1065
G1 X123.136 Y87.931 E.00863
G1 X123.136 Y82.663 E.11261
G1 X122.85 Y82.663 E.00611
G1 X122.85 Y88.217 E.11872
G1 X122.564 Y88.502 E.00863
G1 X122.564 Y83.892 E.09854
G1 X122.279 Y83.892 E.00609
G1 X122.279 Y88.788 E.10466
G1 X122.091 Y89.138 E.00849
G1 X122.091 Y93.939 E.10263
G1 X122.279 Y94.29 E.00851
G1 X122.279 Y99.186 E.10466
G1 X122.564 Y99.186 E.00609
G1 X122.564 Y94.575 E.09857
G1 X122.85 Y94.861 E.00865
G1 X122.85 Y100.414 E.1187
G1 X123.136 Y100.414 E.00611
G1 X123.136 Y95.147 E.11259
G1 X123.421 Y95.432 E.00862
G1 X123.421 Y100.414 E.1065
G1 X123.707 Y100.414 E.00611
G1 X123.707 Y95.718 E.10038
G1 X123.993 Y96.004 E.00865
G1 X123.993 Y101.643 E.12054
G1 X124.278 Y101.643 E.00609
G1 X124.278 Y96.289 E.11445
G1 X124.564 Y96.575 E.00865
G1 X124.564 Y101.643 E.10833
G1 X124.85 Y101.643 E.00611
G1 X124.85 Y96.86 E.10224
G1 X125.135 Y97.146 E.00863
G1 X125.135 Y101.643 E.09613
G1 X125.201 Y101.643 E.00141
G1 X125.201 Y102.871 E.02625
G1 X125.421 Y102.871 E.0047
G1 X125.421 Y97.432 E.11627
G1 X125.707 Y97.717 E.00863
G1 X125.707 Y102.871 E.11017
G1 X125.992 Y102.871 E.00609
G1 X125.992 Y98.003 E.10406
G1 X126.278 Y98.289 E.00865
G1 X126.278 Y102.871 E.09795
G1 X126.429 Y102.871 E.00323
G1 X126.429 Y104.1 E.02627
G1 X126.563 Y104.1 E.00286
G1 X126.563 Y98.574 E.11813
G1 X126.849 Y98.86 E.00865
G1 X126.849 Y104.1 E.11201
G1 X127.135 Y104.1 E.00611
G1 X127.135 Y99.146 E.1059
G1 X127.42 Y99.431 E.00862
G1 X127.42 Y104.1 E.09981
G1 X127.658 Y104.1 E.00509
G1 X127.658 Y105.328 E.02625
G1 X127.706 Y99.717 E.11995
G1 X127.992 Y100.003 E.00865
G1 X127.992 Y105.328 E.11383
G1 X128.277 Y105.328 E.00609
G1 X128.277 Y100.288 E.10774
G1 X128.563 Y100.574 E.00865
G1 X128.563 Y105.328 E.10162
G1 X128.849 Y105.328 E.00611
G1 X128.849 Y100.859 E.09553
G1 X129.134 Y101.145 E.00863
G1 X129.134 Y105.328 E.08942
G1 X129.42 Y105.328 E.00611
G1 X129.42 Y101.431 E.0833
G1 X129.706 Y101.716 E.00863
G1 X129.706 Y105.328 E.07721
G1 X129.991 Y105.328 E.00609
G1 X129.991 Y102.002 E.0711
G1 X130.277 Y102.225 E.00775
G1 X130.277 Y105.328 E.06633
G1 X130.562 Y105.328 E.00609
G1 X130.562 Y102.295 E.06483
G1 X130.848 Y102.295 E.00611
G1 X130.848 Y105.328 E.06483
G1 X131.134 Y105.328 E.00611
G1 X131.134 Y102.295 E.06483
G1 X131.419 Y102.295 E.00609
G1 X131.419 Y105.328 E.06483
G1 X131.705 Y105.328 E.00611
G1 X131.705 Y102.295 E.06483
G1 X131.991 Y102.295 E.00611
G1 X131.991 Y105.328 E.06483
G1 X132.276 Y105.328 E.00609
G1 X132.276 Y102.295 E.06483
G1 X132.562 Y102.295 E.00611
G1 X132.562 Y105.328 E.06483
G1 X132.848 Y105.328 E.00611
G1 X132.848 Y102.295 E.06483
G1 X133.133 Y102.295 E.00609
G1 X133.133 Y105.328 E.06483
G1 X133.419 Y105.328 E.00611
G1 X133.419 Y102.295 E.06483
G1 X133.705 Y102.295 E.00611
G1 X133.705 Y105.328 E.06483
G1 X133.99 Y105.328 E.00609
G1 X133.99 Y102.295 E.06483
G1 X134.276 Y102.295 E.00611
G1 X134.276 Y105.328 E.06483
G1 X134.561 Y105.328 E.00609
G1 X134.561 Y102.295 E.06483
G1 X134.847 Y102.295 E.00611
G1 X134.847 Y105.328 E.06483
G1 X135.133 Y105.328 E.00611
G1 X135.133 Y102.295 E.06483
G1 X135.418 Y102.225 E.00627
G1 X135.418 Y105.328 E.06633
G1 X135.704 Y105.328 E.00611
G1 X135.704 Y102.002 E.0711
G1 X135.99 Y101.716 E.00865
G1 X135.99 Y105.328 E.07721
G1 X136.275 Y105.328 E.00609
G1 X136.275 Y101.431 E.0833
G1 X136.561 Y101.145 E.00865
G1 X136.561 Y105.328 E.08942
G1 X136.847 Y105.328 E.00611
G1 X136.847 Y100.859 E.09553
G1 X137.132 Y100.574 E.00862
G1 X137.132 Y105.328 E.10162
G1 X137.418 Y105.328 E.00611
G1 X137.418 Y100.288 E.10774
G1 X137.704 Y100.003 E.00863
G1 X137.704 Y105.328 E.11383
G1 X137.989 Y105.328 E.00609
G1 X137.989 Y99.717 E.11994
G1 X138.275 Y99.431 E.00865
G1 X138.275 Y104.1 E.09981
G1 X138.56 Y104.1 E.00609
G1 X138.56 Y99.146 E.1059
G1 X138.846 Y98.86 E.00865
G1 X138.846 Y104.1 E.11201
G1 X139.132 Y104.1 E.00611
G1 X139.132 Y98.574 E.11813
G1 X139.417 Y98.289 E.00862
G1 X139.417 Y102.871 E.09795
G1 X139.703 Y102.871 E.00611
G1 X139.703 Y98.003 E.10406
G1 X139.989 Y97.717 E.00865
G1 X139.989 Y102.871 E.11017
G1 X140.274 Y102.871 E.00609
G1 X140.274 Y97.432 E.11627
G1 X140.56 Y97.146 E.00865
G1 X140.56 Y101.643 E.09613
G1 X140.846 Y101.643 E.00611
G1 X140.846 Y96.86 E.10224
G1 X141.131 Y96.575 E.00862
G1 X141.131 Y101.643 E.10833
G1 X141.417 Y101.643 E.00611
G1 X141.417 Y96.289 E.11445
G1 X141.703 Y96.004 E.00863
G1 X141.723 Y101.643 E.12054
G1 X141.723 Y100.414 E.02627
G1 X141.988 Y100.414 E.00566
G1 X141.988 Y95.718 E.10038
G1 X142.274 Y95.432 E.00865
G1 X142.274 Y100.414 E.1065
G1 X142.56 Y100.414 E.00611
G1 X142.56 Y95.147 E.11259
G1 X142.845 Y94.861 E.00863
G1 X142.845 Y100.414 E.1187
G1 X142.952 Y100.414 E.00229
G1 X142.952 Y99.186 E.02625
G1 X143.131 Y99.186 E.00383
G1 X143.131 Y94.575 E.09857
G1 X143.416 Y94.29 E.00862
G1 X143.416 Y99.301 E.10712
M204 S1000
;WIPE_START
G1 F8640
G1 X143.416 Y95.836 E-.8
;WIPE_END
G1 Z.35 F720
G1 X121.993 Y99.301 F10800
G1 Z.2 F720
M73 Q1 S90
G1 E.8 F2100
M204 S500
G1 F1200
G1 X121.993 Y83.892 E.32939
G1 X121.707 Y83.892 E.00611
G1 X121.707 Y99.186 E.32693
G1 X121.515 Y99.186 E.0041
G1 X121.515 Y97.957 E.02627
G1 X121.422 Y97.957 E.00199
G1 X121.422 Y85.12 E.27441
G1 X121.136 Y85.12 E.00611
G1 X121.136 Y97.957 E.27441
G1 X120.851 Y97.957 E.00609
G1 X120.851 Y85.12 E.27441
G1 X120.565 Y85.12 E.00611
G1 X120.565 Y97.957 E.27441
G1 X120.286 Y97.957 E.00596
G1 X120.279 Y86.349 E.24814
